src/assets/Projects.svg

<svg width="402" height="272" viewBox="0 0 402 272" fill="none" xmlns="http://www.w3.org/2000/svg">
<path fill-rule="evenodd" clip-rule="evenodd" d="M41.1551 270.12C-12.5312 259.658 -57.551 217.718 -86.0373 169.141C-113.023 123.122 -99.0208 62.7301 -111.562 9.69478C-125.184 -47.9116 -179.724 -98.1637 -162.985 -156.26C-146.374 -213.909 -81.0092 -238.935 -31.2652 -268.986C10.7563 -294.372 59.011 -296.301 103.112 -317.014C160.815 -344.114 207.491 -422.051 267.918 -409.501C326.306 -397.375 346.485 -318.606 370.557 -261.47C390.319 -214.563 388.759 -162.288 393.844 -110.601C398.546 -62.8036 402.606 -16.9271 399.366 31.3738C395.128 94.5276 417.247 173.424 371.899 216.486C326.602 259.499 255.519 214.571 196.337 224.168C142.59 232.884 93.8718 280.393 41.1551 270.12Z" fill="#1E6851"/>
</svg>

<svg xmlns="http://www.w3.org/2000/svg" width="402" height="272" fill="none"><path fill="#1E6851" fill-rule="evenodd" d="M41.155 270.12C-12.53 259.658-57.55 217.718-86.037 169.141c-26.986-46.019-12.984-106.41-25.525-159.446-13.622-57.607-68.162-107.859-51.423-165.955 16.611-57.649 81.976-82.675 131.72-112.726 42.021-25.386 90.276-27.315 134.377-48.028 57.703-27.1 104.379-105.037 164.806-92.487 58.388 12.126 78.567 90.895 102.639 148.031 19.762 46.907 18.202 99.182 23.287 150.869 4.702 47.797 8.762 93.674 5.522 141.975-4.238 63.154 17.881 142.05-27.467 185.112-45.297 43.013-116.38-1.915-175.562 7.682-53.747 8.716-102.465 56.225-155.182 45.952" clip-rule="evenodd"/></svg>
